!!!SOCIAL_FUNCTION:	songs of the sun dance
!!!PDT:	1936
!!!OTL: No_46_Cheyenne_Sun-Dance_Song_(b).krn
!!!REG: Oklahoma and Montana
!!!LANG: Tone
!!!LING_GROUP: Algonquin
**kern
*staff1
=1-
=
*clefF4
*k[b-]
*M2/4
8f\L
8c\J
4c\
=2
8c\L
8A\J
8c\L
16A\Jk
16r
=3
8c\L
8Bn\J
4c\
=4
8d\L
8c\J
8c\L
8A\J
=5
8F\L
[8A\J
4A\]
=6
8A\L
[8c\J
4c\]
=7
8A\L
8F\J
[4F\
=8
4F\]
4r
=9
8F\L
8F\J
4F\
=10
*M3/4
8A\L
8F\J
8A\L
8F\J
4F\
=11
*M2/4
8F/L
8C/J
8C/
8r
=12
4C/
4C/
=13
4C/
8AA/
8r
==:|!
*-
